X:497
T:B497-  Wert Thou More Fairer Than Thou Art
S:(1st/4), corrected
Q:1/4=120
L:1/4
M:3/4
K:G mixolydian
dBc|d2e|c2d|B3|\
BAB|G2(c|c)B3/2A/|A3|\
ABG|c2(e|e)d3/2c/|c3|\
cBA|d2(e|e)^c3/2d/|d3|\
dc3/2d/|B3/2(A/ F/G/|E)A3/2B/|c3|\
BA3/2G/|^F(d/c/B/A/)|GA3/2G/|G3|]
